web/packages/design/src/ResourceIcon/assets/namecheap.svg

<svg width="72" height="72" viewBox="0 0 72 72" fill="none" xmlns="http://www.w3.org/2000/svg">
<path d="M65.2714 16.042C64.0689 16.0421 62.8883 16.3639 61.852 16.9739C60.8157 17.5839 59.9614 18.46 59.3777 19.5114L59.2406 19.7941L53.9894 30.2109L47.3076 43.3775L51.6851 52.0038L51.9249 52.475C52.5999 53.6688 53.6174 54.6327 54.8461 55.242C56.0732 54.6305 57.0902 53.6672 57.7672 52.475L58.0071 52.0038L71.1223 26.1247L71.4392 25.4993C71.8853 24.4757 72.0698 23.3573 71.9761 22.2447C71.8825 21.132 71.5136 20.0602 70.9027 19.1255C70.2918 18.1909 69.4581 17.4229 68.4765 16.8906C67.495 16.3583 66.3965 16.0785 65.28 16.0763L65.2714 16.042Z" fill="#FF5100"/>
<path d="M24.7353 28.5748L20.3664 20.0084L20.1266 19.5372C19.4572 18.3442 18.4416 17.3823 17.214 16.7788C15.9885 17.3814 14.9734 18.3398 14.3014 19.5286L14.053 20.0084L0.920651 45.8618L0.603694 46.4786C-0.104499 48.0645 -0.172453 49.8628 0.414029 51.4976C1.00051 53.1325 2.19606 54.4774 3.75088 55.2515C5.3057 56.0256 7.0995 56.1689 8.75751 55.6516C10.4155 55.1342 11.8095 53.9961 12.6481 52.4751L12.7937 52.201L18.0792 41.7842L24.7524 28.6262L24.7353 28.5748Z" fill="#FF5100"/>
<path d="M65.2537 16.042C64.0524 16.0427 62.8733 16.3648 61.8384 16.9749C60.8036 17.5849 59.9508 18.4607 59.3686 19.5114L59.2229 19.7941L53.9374 30.2109L47.2471 43.3775L51.6331 52.0038L51.8729 52.475C52.5453 53.6708 53.5636 54.6353 54.7941 55.242C56.0246 54.6353 57.0428 53.6708 57.7152 52.475L57.9637 52.0038L71.1217 26.1247L71.4301 25.4993C71.8761 24.4757 72.0606 23.3573 71.967 22.2447C71.8733 21.132 71.5044 20.0602 70.8935 19.1255C70.2826 18.1909 69.4489 17.4229 68.4674 16.8906C67.4859 16.3583 66.3874 16.0785 65.2708 16.0763L65.2537 16.042Z" fill="url(#paint0_linear_16907_11758)"/>
<path d="M6.75416 55.9441C7.95115 55.9476 9.12743 55.632 10.1619 55.0297C11.1963 54.4274 12.0515 53.5602 12.6393 52.5175L12.7849 52.2348L18.079 41.8181L24.7608 28.6515L20.3833 19.9822L20.1435 19.5111C19.4663 18.316 18.4456 17.352 17.2138 16.7441C15.9851 17.3534 14.9675 18.3173 14.2926 19.5111L14.0528 19.9822L0.877592 45.8614L0.560634 46.4868C0.114576 47.5104 -0.0699285 48.6288 0.0237322 49.7414C0.117393 50.8541 0.486278 51.9259 1.09718 52.8606C1.70808 53.7952 2.54182 54.5632 3.52333 55.0955C4.50485 55.6278 5.60333 55.9076 6.71989 55.9098L6.75416 55.9441Z" fill="url(#paint1_linear_16907_11758)"/>
<path d="M24.735 28.5746L20.3661 20.0082L20.1262 19.537C19.4538 18.3412 18.4356 17.3767 17.2051 16.7701C17.6142 16.5697 18.0416 16.409 18.4815 16.2903C19.0415 16.1484 19.617 16.0765 20.1948 16.0762H29.3437C30.5382 16.0795 31.7106 16.3981 32.7425 16.9997C33.7743 17.6014 34.6291 18.4648 35.2203 19.5027L35.4601 19.9739L47.2904 43.4116L51.6507 51.9781L51.8905 52.4492C52.5705 53.6576 53.601 54.6314 54.846 55.2419C53.9194 55.6923 52.9036 55.9294 51.8734 55.9357H42.6731C41.4799 55.9318 40.3089 55.6129 39.2785 55.0112C38.2481 54.4095 37.3949 53.5464 36.8051 52.5092L36.5566 52.038L24.735 28.5746Z" fill="#FF8C44"/>
<defs>
<linearGradient id="paint0_linear_16907_11758" x1="50.5537" y1="53.2631" x2="67.7037" y2="16.4874" gradientUnits="userSpaceOnUse">
<stop stop-color="#D4202C"/>
<stop offset="0.1" stop-color="#DC3D29" stop-opacity="0.79"/>
<stop offset="0.2" stop-color="#E45926" stop-opacity="0.58"/>
<stop offset="0.32" stop-color="#EA7123" stop-opacity="0.4"/>
<stop offset="0.43" stop-color="#F08521" stop-opacity="0.25"/>
<stop offset="0.55" stop-color="#F4941F" stop-opacity="0.14"/>
<stop offset="0.68" stop-color="#F79F1E" stop-opacity="0.06"/>
<stop offset="0.82" stop-color="#F8A51D" stop-opacity="0.02"/>
<stop offset="1" stop-color="#F9A71D" stop-opacity="0"/>
</linearGradient>
<linearGradient id="paint1_linear_16907_11758" x1="21.4541" y1="18.723" x2="4.30416" y2="55.4986" gradientUnits="userSpaceOnUse">
<stop stop-color="#D4202C"/>
<stop offset="0.1" stop-color="#DC3D29" stop-opacity="0.79"/>
<stop offset="0.2" stop-color="#E45926" stop-opacity="0.58"/>
<stop offset="0.32" stop-color="#EA7123" stop-opacity="0.4"/>
<stop offset="0.43" stop-color="#F08521" stop-opacity="0.25"/>
<stop offset="0.55" stop-color="#F4941F" stop-opacity="0.14"/>
<stop offset="0.68" stop-color="#F79F1E" stop-opacity="0.06"/>
<stop offset="0.82" stop-color="#F8A51D" stop-opacity="0.02"/>
<stop offset="1" stop-color="#F9A71D" stop-opacity="0"/>
</linearGradient>
</defs>
</svg>

<svg xmlns="http://www.w3.org/2000/svg" width="72" height="72" fill="none" viewBox="0 0 72 72"><path fill="#ff5100" d="M65.271 16.042a6.74 6.74 0 0 0-5.893 3.47l-.137.282-5.252 10.417-6.681 13.167 4.377 8.626.24.471a6.85 6.85 0 0 0 2.921 2.767 6.9 6.9 0 0 0 2.921-2.767l.24-.471 13.115-25.88.317-.625a6.732 6.732 0 0 0-6.159-9.423zM24.735 28.575l-4.369-8.567-.24-.47a6.76 6.76 0 0 0-2.912-2.76 6.8 6.8 0 0 0-2.913 2.75l-.248.48L.921 45.862l-.317.617a6.733 6.733 0 0 0 12.044 5.996l.146-.274 5.285-10.417 6.673-13.158z"/><path fill="url(#paint0_linear_16907_11758)" d="M65.254 16.042a6.73 6.73 0 0 0-5.885 3.47l-.146.282-5.286 10.417-6.69 13.167 4.386 8.626.24.471a6.8 6.8 0 0 0 2.921 2.767 6.8 6.8 0 0 0 2.921-2.767l.249-.471 13.158-25.88.308-.625a6.734 6.734 0 0 0-6.16-9.423z"/><path fill="url(#paint1_linear_16907_11758)" d="M6.754 55.944a6.73 6.73 0 0 0 5.885-3.427l.146-.282 5.294-10.417 6.682-13.166-4.378-8.67-.24-.47a6.85 6.85 0 0 0-2.93-2.768 6.85 6.85 0 0 0-2.92 2.767l-.24.471L.878 45.862l-.317.625A6.733 6.733 0 0 0 6.72 55.91z"/><path fill="#ff8c44" d="m24.735 28.575-4.369-8.567-.24-.471a6.8 6.8 0 0 0-2.92-2.767q.614-.3 1.276-.48a7 7 0 0 1 1.713-.214h9.149a6.79 6.79 0 0 1 5.876 3.427l.24.47 11.83 23.439 4.36 8.566.24.471a6.85 6.85 0 0 0 2.956 2.793 6.9 6.9 0 0 1-2.973.694h-9.2a6.78 6.78 0 0 1-5.868-3.427l-.248-.471z"/><defs><linearGradient id="paint0_linear_16907_11758" x1="50.554" x2="67.704" y1="53.263" y2="16.487" gradientUnits="userSpaceOnUse"><stop stop-color="#d4202c"/><stop offset=".1" stop-color="#dc3d29" stop-opacity=".79"/><stop offset=".2" stop-color="#e45926" stop-opacity=".58"/><stop offset=".32" stop-color="#ea7123" stop-opacity=".4"/><stop offset=".43" stop-color="#f08521" stop-opacity=".25"/><stop offset=".55" stop-color="#f4941f" stop-opacity=".14"/><stop offset=".68" stop-color="#f79f1e" stop-opacity=".06"/><stop offset=".82" stop-color="#f8a51d" stop-opacity=".02"/><stop offset="1" stop-color="#f9a71d" stop-opacity="0"/></linearGradient><linearGradient id="paint1_linear_16907_11758" x1="21.454" x2="4.304" y1="18.723" y2="55.499" gradientUnits="userSpaceOnUse"><stop stop-color="#d4202c"/><stop offset=".1" stop-color="#dc3d29" stop-opacity=".79"/><stop offset=".2" stop-color="#e45926" stop-opacity=".58"/><stop offset=".32" stop-color="#ea7123" stop-opacity=".4"/><stop offset=".43" stop-color="#f08521" stop-opacity=".25"/><stop offset=".55" stop-color="#f4941f" stop-opacity=".14"/><stop offset=".68" stop-color="#f79f1e" stop-opacity=".06"/><stop offset=".82" stop-color="#f8a51d" stop-opacity=".02"/><stop offset="1" stop-color="#f9a71d" stop-opacity="0"/></linearGradient></defs></svg>
